X: 1
T: Hag's Purse
M: 6/8
L: 1/8
K: D mix
G |: A2 D FED | A2 B cAF | G2 E EDE | c2 d cAG |
| A/A/AD FED | AdB cAF | GEE cEE | DED DcB |
| A2 D FED  | AdB cAF | GEE EDE | ced cAG |
| ADD FED | AdB cAF | ~G3 cGE | DED D2 A ||
| d2 e fed | efd cAF | G2 E EDE | c2 d cAG |
| Add fed | efd cAF | GEE cGE | DED DE/F/G |
| Ade fed | efd cAF | GcA GcA | ced cAG |
| Ade fed | g/f/ed cAF | GE/F/G cGE | DFE DcB ||
